data/cards/self-care/washing-hands.svg

<svg xmlns="http://www.w3.org/2000/svg" width="512" height="512" fill="none"><g clip-path="url(#a)"><path fill="#CEEAFB" d="M299.385 509.765c33.843 0 61.278-27.435 61.278-61.278s-27.435-61.278-61.278-61.278-61.278 27.435-61.278 61.278 27.435 61.278 61.278 61.278ZM294.67 2.258c-30.191-.725-56.343 16.876-68.143 42.463-3.066 6.649-10.494 10.054-17.468 7.824-51.791-16.564-108.647 21.47-108.647 79.579 0 46.086 37.36 83.446 83.446 83.446 37.394 0 69.025-24.602 79.629-58.5 2.189-6.997 9.268-11.18 16.48-9.862 42.06 7.683 83.085-23.219 85.804-67.27 2.537-41.105-29.931-76.691-71.101-77.68Z"/><path fill="#A3DEFE" d="M255.172 175.43c-67.841-3.905-92.726-78.992-75.173-126.679-41.934 2.095-79.586 36.086-79.586 83.373 0 46.086 37.36 83.446 83.446 83.446 30.225 0 56.678-16.077 71.313-40.14ZM355.4 423.648c-9.532-21.463-31.018-36.439-56.016-36.439-33.843 0-61.278 27.435-61.278 61.278 0 20.256 9.834 38.209 24.981 49.365 18.439-6.583 35.34-17.231 49.595-31.486l42.718-42.718Z"/><path fill="#FFD3BD" d="M439.658 245.664c-13.812-13.812-36.204-13.813-50.017-.002l23.53-23.53c13.812-13.812 13.812-36.207 0-50.019-13.812-13.812-36.207-13.812-50.019 0l12.895-12.895c13.813-13.812 13.813-36.207 0-50.019-13.812-13.812-36.207-13.812-50.019 0l-32.821 32.821c13.81-13.813 13.81-36.205-.002-50.017-13.812-13.812-36.207-13.812-50.019 0l-89.241 89.241v-20.882c0-25.79-20.907-46.697-46.697-46.697-25.79 0-46.697 20.907-46.697 46.697v156.989c0 26.391 10.068 52.781 30.203 72.916l54.244 54.244c40.271 40.271 105.562 40.271 145.833 0l21.205-21.206 127.623-127.623c13.812-13.811 13.812-36.205-.001-50.018Z"/><path fill="#FFBE9D" d="M142.899 130.218c-8.566-10.121-21.355-16.553-35.652-16.553-25.79 0-46.697 20.907-46.697 46.697v156.989c0 26.391 10.068 52.781 30.203 72.917l54.244 54.244c23.795 23.795 56.325 33.526 87.268 29.201-139.882-89.98-117.845-262.765-89.366-343.495Zm85.766 83.844a7.474 7.474 0 0 1-5.303-2.197 7.5 7.5 0 0 1 0-10.606l64.54-64.54a7.5 7.5 0 0 1 10.606 0 7.5 7.5 0 0 1 0 10.606l-64.539 64.54a7.482 7.482 0 0 1-5.304 2.197Zm59.648 40.39a7.5 7.5 0 0 1-5.303-12.804l74.839-74.839a7.5 7.5 0 0 1 10.607 10.606l-74.839 74.839a7.479 7.479 0 0 1-5.304 2.198Zm38.5 61.538a7.474 7.474 0 0 1-5.303-2.197 7.5 7.5 0 0 1 0-10.606l62.828-62.828a7.5 7.5 0 0 1 10.606 0 7.5 7.5 0 0 1 0 10.606l-62.828 62.828a7.476 7.476 0 0 1-5.303 2.197Z"/><path fill="#CEEAFB" d="M512 253.706c0-40.925-33.656-73.988-74.8-73.022-38.854.912-70.497 32.678-71.27 71.536-.374 18.78 6.351 35.975 17.665 49.107 5.111 5.932 6.236 14.433 2.773 21.457-4.415 8.956-6.649 19.18-6.006 29.979 1.799 30.21 26.47 54.521 56.701 55.911 34.21 1.573 62.439-25.697 62.439-59.56 0-9.759-2.35-18.966-6.511-27.095-3.612-7.057-2.88-15.59 2.185-21.689C505.682 287.682 512 271.433 512 253.706Z"/><path fill="#A3DEFE" d="M484.551 388.581c-57.468 6.88-81.042-46.818-56.374-82.019 2.791-3.982 1.756-9.549-2.291-12.245-29.959-19.962-39.533-78.34-6.466-110.979-30.3 8.477-52.84 36.164-53.491 68.883-.375 18.847 6.399 36.098 17.786 49.247 5.134 5.928 6.121 14.281 2.653 21.315-4.416 8.956-6.649 19.18-6.006 29.98 1.812 30.432 26.824 54.827 57.29 55.936 18.68.679 35.521-7.249 46.899-20.118Z"/><path fill="#CEEAFB" d="M112.399 278.988c6.689-30.681-12.76-60.976-43.441-67.665-30.682-6.689-60.976 12.761-67.665 43.442-6.689 30.681 12.76 60.976 43.442 67.665 30.681 6.689 60.976-12.761 67.664-43.442Z"/><path fill="#A3DEFE" d="M56.861 323.657c16.513 0 31.376-7.046 41.764-18.287-81.321 4.638-84.218-68.042-64.676-90.614C13.96 223.57 0 243.547 0 266.796c0 31.404 25.457 56.861 56.861 56.861Z"/></g><defs><clipPath id="a"><path fill="#fff" d="M0 0h512v512H0z"/></clipPath></defs></svg>

<svg width="512" height="512" viewBox="0 0 512 512" fill="none" xmlns="http://www.w3.org/2000/svg">
<g clip-path="url(#clip0)">
<path d="M299.385 509.765C333.228 509.765 360.663 482.33 360.663 448.487C360.663 414.644 333.228 387.209 299.385 387.209C265.542 387.209 238.107 414.644 238.107 448.487C238.107 482.33 265.542 509.765 299.385 509.765Z" fill="#CEEAFB"/>
<path d="M294.67 2.25792C264.479 1.53292 238.327 19.1339 226.527 44.7209C223.461 51.3699 216.033 54.7749 209.059 52.5449C157.268 35.9809 100.412 74.0159 100.412 132.124C100.412 178.21 137.772 215.57 183.858 215.57C221.252 215.57 252.883 190.968 263.487 157.07C265.676 150.073 272.755 145.89 279.967 147.208C322.027 154.891 363.052 123.989 365.771 79.9379C368.308 38.8329 335.84 3.24692 294.67 2.25792Z" fill="#CEEAFB"/>
<path d="M255.172 175.43C187.331 171.525 162.446 96.438 179.999 48.751C138.065 50.846 100.413 84.837 100.413 132.124C100.413 178.21 137.773 215.57 183.859 215.57C214.084 215.57 240.537 199.493 255.172 175.43Z" fill="#A3DEFE"/>
<path d="M355.4 423.648C345.868 402.185 324.382 387.209 299.384 387.209C265.541 387.209 238.106 414.644 238.106 448.487C238.106 468.743 247.94 486.696 263.087 497.852C281.526 491.269 298.427 480.621 312.682 466.366L355.4 423.648Z" fill="#A3DEFE"/>
<path d="M439.658 245.664C425.846 231.852 403.454 231.851 389.641 245.662L413.171 222.132C426.983 208.32 426.983 185.925 413.171 172.113C399.359 158.301 376.964 158.301 363.152 172.113L376.047 159.218C389.86 145.406 389.86 123.011 376.047 109.199C362.235 95.3866 339.84 95.3866 326.028 109.199L293.207 142.02C307.017 128.207 307.017 105.815 293.205 92.0026C279.393 78.1906 256.998 78.1906 243.186 92.0026L153.945 181.244V160.362C153.945 134.572 133.038 113.665 107.248 113.665C81.4583 113.665 60.5513 134.572 60.5513 160.362V317.351C60.5513 343.742 70.6193 370.132 90.7543 390.267L144.998 444.511C185.269 484.782 250.56 484.782 290.831 444.511L312.036 423.305L439.659 295.682C453.471 281.871 453.471 259.477 439.658 245.664Z" fill="#FFD3BD"/>
<path d="M142.899 130.218C134.333 120.097 121.544 113.665 107.247 113.665C81.4573 113.665 60.5503 134.572 60.5503 160.362V317.351C60.5503 343.742 70.6183 370.132 90.7533 390.268L144.997 444.512C168.792 468.307 201.322 478.038 232.265 473.713C92.3833 383.733 114.42 210.948 142.899 130.218Z" fill="#FFBE9D"/>
<path d="M228.665 214.062C226.746 214.062 224.826 213.33 223.362 211.865C220.433 208.936 220.433 204.187 223.362 201.259L287.902 136.719C290.831 133.79 295.58 133.79 298.508 136.719C301.437 139.648 301.437 144.397 298.508 147.325L233.969 211.865C232.504 213.329 230.584 214.062 228.665 214.062Z" fill="#FFBE9D"/>
<path d="M288.313 254.452C286.394 254.452 284.474 253.72 283.01 252.255C280.081 249.326 280.081 244.577 283.01 241.648L357.849 166.809C360.778 163.88 365.527 163.88 368.456 166.809C371.385 169.738 371.385 174.487 368.456 177.415L293.617 252.254C292.152 253.719 290.232 254.452 288.313 254.452Z" fill="#FFBE9D"/>
<path d="M326.813 315.99C324.894 315.99 322.974 315.258 321.51 313.793C318.581 310.864 318.581 306.115 321.51 303.187L384.338 240.359C387.267 237.43 392.016 237.43 394.944 240.359C397.873 243.288 397.873 248.037 394.944 250.965L332.116 313.793C330.652 315.257 328.733 315.99 326.813 315.99Z" fill="#FFBE9D"/>
<path d="M512 253.706C512 212.781 478.344 179.718 437.2 180.684C398.346 181.596 366.703 213.362 365.93 252.22C365.556 271 372.281 288.195 383.595 301.327C388.706 307.259 389.831 315.76 386.368 322.784C381.953 331.74 379.719 341.964 380.362 352.763C382.161 382.973 406.832 407.284 437.063 408.674C471.273 410.247 499.502 382.977 499.502 349.114C499.502 339.355 497.152 330.148 492.991 322.019C489.379 314.962 490.111 306.429 495.176 300.33C505.682 287.682 512 271.433 512 253.706Z" fill="#CEEAFB"/>
<path d="M484.551 388.581C427.083 395.461 403.509 341.763 428.177 306.562C430.968 302.58 429.933 297.013 425.886 294.317C395.927 274.355 386.353 215.977 419.42 183.338C389.12 191.815 366.58 219.502 365.929 252.221C365.554 271.068 372.328 288.319 383.715 301.468C388.849 307.396 389.836 315.749 386.368 322.783C381.952 331.739 379.719 341.963 380.362 352.763C382.174 383.195 407.186 407.59 437.652 408.699C456.332 409.378 473.173 401.45 484.551 388.581Z" fill="#A3DEFE"/>
<path d="M112.399 278.988C119.088 248.307 99.6388 218.012 68.9576 211.323C38.2764 204.634 7.98197 224.084 1.29303 254.765C-5.3959 285.446 14.0536 315.741 44.7348 322.43C75.416 329.119 105.711 309.669 112.399 278.988Z" fill="#CEEAFB"/>
<path d="M56.861 323.657C73.374 323.657 88.237 316.611 98.625 305.37C17.304 310.008 14.407 237.328 33.949 214.756C13.96 223.57 0 243.547 0 266.796C0 298.2 25.457 323.657 56.861 323.657Z" fill="#A3DEFE"/>
</g>
<defs>
<clipPath id="clip0">
<rect width="512" height="512" fill="white"/>
</clipPath>
</defs>
</svg>
